_inc/systems/logos/symbian.svg

<?xml version="1.0" encoding="UTF-8" standalone="no"?>
<svg
   version="1.0"
   width="729.88135"
   height="202.32422"
   viewBox="0 0 729.88135 202.32422"
   id="Layer_1"
   xmlns="http://www.w3.org/2000/svg"
   xmlns:svg="http://www.w3.org/2000/svg">
  <defs
     id="defs354" />
  <path
     d="M 517.893 16.572 C 517.893 24.167 510.986 31.073 502.703 31.073 C 495.106 31.073 488.199 24.167 488.199 16.572 C 488.199 8.286 495.106 1.381 503.393 1.381 C 511.679 1.381 517.893 8.286 517.893 16.572 L 517.893 16.572 Z"
     style="fill-rule: evenodd; fill: rgb(255, 255, 255);"
     id="path5" />
  <path
     d="M 486.82 101.506 C 486.82 69.741 494.417 44.192 502.703 44.192 C 511.679 44.192 519.272 69.741 519.272 101.506 C 519.272 133.267 511.679 158.816 502.703 158.816 C 494.417 158.816 486.82 133.267 486.82 101.506 L 486.82 101.506 Z"
     style="fill-rule: evenodd; fill: rgb(255, 255, 255);"
     id="path7" />
  <path
     d="M 75.959 73.887 C 64.909 68.362 57.314 66.289 49.027 66.289 C 41.432 66.289 35.908 70.433 35.908 76.646 C 35.908 82.171 39.36 84.933 49.027 87.695 L 62.148 91.148 C 75.268 94.601 80.101 98.744 83.554 103.576 C 87.698 108.411 89.768 114.629 89.768 121.532 C 89.768 143.63 71.125 158.816 43.505 158.816 C 30.384 158.816 15.883 154.679 0 146.388 L 10.359 125.678 C 18.646 131.202 33.837 138.105 45.576 138.105 C 53.862 138.105 60.076 132.581 60.076 125.678 C 60.076 118.767 54.552 114.629 43.505 112.557 L 31.073 110.484 C 23.479 109.104 15.192 104.269 11.051 99.436 C 7.597 94.601 4.835 87.006 4.835 80.101 C 4.835 59.384 21.408 44.884 46.957 44.884 C 63.53 44.884 75.268 50.408 84.936 55.241 L 75.959 73.887 L 75.959 73.887 Z"
     style="fill-rule: evenodd; fill: rgb(255, 255, 255);"
     id="path9" />
  <path
     d="M 123.604 46.263 L 142.25 109.104 C 144.32 115.314 147.772 131.202 147.772 131.202 C 147.772 131.202 149.844 119.46 151.225 113.936 C 151.917 110.484 153.988 104.269 155.369 99.436 L 171.942 48.335 L 200.942 48.335 L 162.274 157.437 C 154.679 178.155 149.153 187.131 141.558 192.655 C 134.652 198.18 124.985 200.938 115.317 202.324 L 105.652 184.365 C 111.866 182.3 119.462 179.534 123.604 176.775 C 126.368 174.703 129.128 171.938 131.201 167.8 C 133.962 163.654 134.652 161.582 137.415 155.364 C 137.415 155.364 131.201 156.058 120.152 124.984 L 94.603 49.717 L 123.604 46.263 L 123.604 46.263 Z"
     style="fill-rule: evenodd; fill: rgb(255, 255, 255);"
     id="path11" />
  <path
     d="M 236.85 46.263 C 238.231 49.027 239.613 51.789 240.302 57.313 C 247.899 49.717 256.875 46.263 266.542 46.263 C 275.52 46.263 283.116 49.027 288.64 55.241 C 290.021 56.622 291.402 58.694 292.783 60.075 C 302.451 50.408 311.426 46.263 323.165 46.263 C 331.452 46.263 339.738 49.027 344.573 53.17 C 350.095 58.003 352.167 64.219 352.167 79.409 L 352.167 155.364 L 325.237 155.364 L 325.237 84.933 C 325.237 71.813 323.165 69.052 316.259 69.052 C 310.737 69.052 303.832 73.194 297.616 78.027 L 297.616 155.364 L 270.686 155.364 L 270.686 85.624 C 270.686 72.503 268.615 69.052 261.018 69.052 C 256.185 69.052 248.588 71.813 243.064 77.338 L 243.064 155.364 L 215.445 155.364 L 215.445 80.79 C 215.445 64.908 214.063 58.694 211.301 53.17 L 236.85 46.263 L 236.85 46.263 Z"
     style="fill-rule: evenodd; fill: rgb(255, 255, 255);"
     id="path13" />
  <path
     d="M 666.356 45.573 C 669.118 49.717 670.498 54.549 670.498 58.694 C 674.642 55.933 678.094 53.17 682.929 51.098 C 688.454 47.646 696.046 46.263 702.264 46.263 C 714.002 46.263 725.051 52.479 727.813 61.455 C 729.881 65.6 729.881 70.433 729.881 77.338 L 729.881 155.364 L 702.264 155.364 L 702.264 85.624 C 702.264 73.194 700.192 69.741 693.284 69.741 C 687.07 69.741 680.167 73.887 673.259 79.409 L 673.259 155.364 L 645.638 155.364 L 645.638 78.027 C 645.638 68.362 644.258 59.384 641.497 52.479 L 666.356 45.573 L 666.356 45.573 Z"
     style="fill-rule: evenodd; fill: rgb(255, 255, 255);"
     id="path15" />
  <path
     d="M 622.851 83.554 C 622.851 72.503 622.162 69.052 620.779 64.219 C 616.637 52.479 604.209 45.573 586.253 45.573 C 576.587 45.573 567.612 47.646 557.252 52.479 C 549.656 55.241 545.514 57.313 539.99 60.765 L 551.728 80.79 C 562.777 73.194 573.826 69.052 582.801 69.052 C 592.471 69.052 595.229 72.503 595.229 84.933 L 595.229 89.076 C 592.471 89.076 591.088 89.076 589.016 89.076 C 554.491 89.076 537.228 100.816 537.228 125.678 C 537.228 147.081 550.349 158.816 573.826 158.816 C 596.613 158.816 622.851 145.702 622.851 122.912 L 622.851 83.554 L 622.851 83.554 Z M 593.85 132.581 C 589.709 137.412 584.875 140.178 579.35 140.178 C 572.447 140.178 566.922 132.581 566.922 124.291 C 566.922 111.863 573.826 108.411 593.161 108.411 L 594.54 108.411 L 593.85 132.581 L 593.85 132.581 Z"
     style="fill-rule: evenodd; fill: rgb(255, 255, 255);"
     id="path17" />
  <path
     d="M 425.363 45.573 C 415.697 45.573 408.1 48.335 402.576 53.859 C 402.576 52.479 403.265 47.646 403.265 44.884 L 403.265 19.333 C 403.265 11.737 402.576 7.597 401.886 0 L 372.885 6.905 C 374.955 13.119 374.955 20.024 374.955 33.146 L 374.955 120.153 C 374.955 136.727 389.455 157.437 421.221 157.437 C 431.577 157.437 440.556 156.058 448.15 149.84 C 461.271 139.484 467.485 121.532 467.485 100.125 C 467.485 66.289 451.601 45.573 425.363 45.573 L 425.363 45.573 Z M 432.959 127.742 C 430.198 133.267 426.052 136.033 419.149 136.033 C 411.552 136.033 407.411 132.581 403.265 129.13 L 403.265 77.338 C 406.721 73.194 412.242 69.052 419.149 69.052 C 426.746 69.052 432.27 73.194 434.338 82.171 C 435.721 87.006 435.721 91.148 435.721 100.816 C 435.721 113.936 435.028 121.532 432.959 127.742 L 432.959 127.742 Z"
     style="fill-rule: evenodd; fill: rgb(255, 255, 255);"
     id="path19" />
  <script
     id="script349" />
</svg>

<svg xmlns="http://www.w3.org/2000/svg" viewBox="0 0 729.88 202.32"><path d="M517.9 16.57c0 7.6-6.91 14.5-15.2 14.5-7.6 0-14.5-6.9-14.5-14.5 0-8.28 6.9-15.19 15.2-15.19 8.28 0 14.5 6.9 14.5 15.2m-31.08 84.92c0-31.76 7.6-57.3 15.88-57.3 8.98 0 16.57 25.54 16.57 57.3 0 31.77-7.6 57.32-16.57 57.32-8.28 0-15.88-25.55-15.88-57.31M75.96 73.89c-11.05-5.53-18.65-7.6-26.93-7.6-7.6 0-13.12 4.14-13.12 10.36 0 5.52 3.45 8.28 13.12 11.04l13.12 3.46c13.12 3.45 17.95 7.6 21.4 12.43 4.15 4.83 6.22 11.05 6.22 17.95 0 22.1-18.64 37.29-46.26 37.29q-19.7 0-43.51-12.43l10.36-20.71c8.29 5.52 23.48 12.42 35.22 12.42 8.28 0 14.5-5.52 14.5-12.42s-5.53-11.05-16.57-13.12l-12.44-2.08c-7.6-1.38-15.88-6.21-20.02-11.04C7.6 94.6 4.83 87 4.83 80.1c0-20.72 16.58-35.22 42.13-35.22 16.57 0 28.3 5.53 37.98 10.36zm47.64-27.63 18.65 62.84c2.07 6.21 5.52 22.1 5.52 22.1s2.07-11.74 3.45-17.26c.7-3.46 2.77-9.67 4.15-14.5l16.57-51.1h29l-38.67 109.1c-7.6 20.72-13.12 29.7-20.71 35.22-6.9 5.52-16.58 8.28-26.24 9.66l-9.67-17.95c6.22-2.07 13.81-4.84 17.95-7.6a25 25 0 0 0 7.6-8.97c2.76-4.15 3.45-6.22 6.22-12.44 0 0-6.22.7-17.27-30.38L94.6 49.72zm113.25 0c1.38 2.77 2.76 5.53 3.45 11.05 7.6-7.6 16.57-11.05 26.24-11.05 8.98 0 16.58 2.77 22.1 8.98 1.38 1.38 2.76 3.45 4.14 4.84 9.67-9.67 18.65-13.82 30.39-13.82 8.28 0 16.57 2.77 21.4 6.91 5.53 4.83 7.6 11.05 7.6 26.24v75.95h-26.93V84.93c0-13.12-2.07-15.88-8.98-15.88-5.52 0-12.43 4.14-18.64 8.98v77.33h-26.93V85.62c0-13.12-2.07-16.57-9.67-16.57-4.83 0-12.43 2.76-17.96 8.29v78.02h-27.62V80.8c0-15.88-1.38-22.1-4.14-27.62zm429.51-.69a24.4 24.4 0 0 1 4.14 13.12c4.14-2.76 7.6-5.52 12.43-7.6 5.52-3.44 13.12-4.83 19.33-4.83 11.74 0 22.8 6.22 25.55 15.2 2.07 4.14 2.07 8.97 2.07 15.88v78.02h-27.62V85.62c0-12.43-2.07-15.88-8.98-15.88-6.21 0-13.11 4.15-20.02 9.67v75.95h-27.62V78.03c0-9.67-1.38-18.65-4.14-25.55zm-43.51 37.98c0-11.05-.69-14.5-2.07-19.33-4.14-11.74-16.57-18.65-34.53-18.65-9.66 0-18.64 2.08-29 6.9-7.6 2.77-11.74 4.84-17.26 8.3l11.74 20.02c11.05-7.6 22.1-11.74 31.07-11.74 9.67 0 12.43 3.45 12.43 15.88v4.15h-6.21c-34.53 0-51.8 11.74-51.8 36.6 0 21.4 13.13 33.14 36.6 33.14 22.8 0 49.03-13.12 49.03-35.9zm-29 49.03c-4.14 4.83-8.98 7.6-14.5 7.6-6.9 0-12.43-7.6-12.43-15.89 0-12.43 6.9-15.88 26.24-15.88h1.38zM425.36 45.57q-14.5 0-22.78 8.29c0-1.38.69-6.21.69-8.98V19.33c0-7.6-.7-11.73-1.38-19.33l-29 6.9c2.06 6.22 2.06 13.12 2.06 26.25v87c0 16.58 14.5 37.29 46.27 37.29 10.36 0 19.34-1.38 26.93-7.6 13.12-10.36 19.34-28.3 19.34-49.71 0-33.84-15.89-54.56-42.13-54.56m7.6 82.17c-2.76 5.53-6.9 8.3-13.81 8.3-7.6 0-11.74-3.46-15.88-6.91v-51.8c3.45-4.14 8.97-8.28 15.88-8.28 7.6 0 13.12 4.14 15.19 13.12 1.38 4.84 1.38 8.98 1.38 18.65 0 13.12-.7 20.71-2.76 26.92" style="fill-rule:evenodd;fill:#fff"/><script/></svg>
